src/lib/packages/icons/src/assets/line/watch-square.svg

<svg xmlns="http://www.w3.org/2000/svg" width="24" height="24" fill="none"><path fill="currentColor" d="M7.75 3a.75.75 0 0 1 .75-.75h6a.75.75 0 0 1 0 1.5h-6A.75.75 0 0 1 7.75 3Zm6.75 17.25h-6a.75.75 0 0 0 0 1.5h6a.75.75 0 0 0 0-1.5Zm5.25-8.5a.75.75 0 0 1-.75.75h-.25v3c0 2.418-1.332 3.75-3.75 3.75H8c-2.418 0-3.75-1.332-3.75-3.75v-7c0-2.418 1.332-3.75 3.75-3.75h7c2.418 0 3.75 1.332 3.75 3.75V11H19a.75.75 0 0 1 .75.75Zm-2.5-3.25c0-1.577-.673-2.25-2.25-2.25H8c-1.577 0-2.25.673-2.25 2.25v7c0 1.577.673 2.25 2.25 2.25h7c1.577 0 2.25-.673 2.25-2.25v-7Zm-5 3.125V8.5a.75.75 0 0 0-1.5 0V12a.75.75 0 0 0 .3.6l2 1.5a.748.748 0 0 0 1.05-.15.75.75 0 0 0-.15-1.05l-1.7-1.275Z"/></svg>

<svg width="24" height="24" viewBox="0 0 24 24" fill="none" xmlns="http://www.w3.org/2000/svg">
<path d="M7.75 3C7.75 2.586 8.086 2.25 8.5 2.25H14.5C14.914 2.25 15.25 2.586 15.25 3C15.25 3.414 14.914 3.75 14.5 3.75H8.5C8.086 3.75 7.75 3.414 7.75 3ZM14.5 20.25H8.5C8.086 20.25 7.75 20.586 7.75 21C7.75 21.414 8.086 21.75 8.5 21.75H14.5C14.914 21.75 15.25 21.414 15.25 21C15.25 20.586 14.914 20.25 14.5 20.25ZM19.75 11.75C19.75 12.164 19.414 12.5 19 12.5H18.75V15.5C18.75 17.918 17.418 19.25 15 19.25H8C5.582 19.25 4.25 17.918 4.25 15.5V8.5C4.25 6.082 5.582 4.75 8 4.75H15C17.418 4.75 18.75 6.082 18.75 8.5V11H19C19.414 11 19.75 11.336 19.75 11.75ZM17.25 8.5C17.25 6.923 16.577 6.25 15 6.25H8C6.423 6.25 5.75 6.923 5.75 8.5V15.5C5.75 17.077 6.423 17.75 8 17.75H15C16.577 17.75 17.25 17.077 17.25 15.5V8.5ZM12.25 11.625V8.5C12.25 8.086 11.914 7.75 11.5 7.75C11.086 7.75 10.75 8.086 10.75 8.5V12C10.75 12.236 10.861 12.4581 11.05 12.6001L13.05 14.1001C13.185 14.2011 13.343 14.25 13.499 14.25C13.728 14.25 13.9531 14.146 14.1001 13.95C14.3491 13.618 14.2819 13.1479 13.9509 12.8999L12.25 11.625Z" fill="currentColor"/>
</svg>
